X:1
T:Ashgabat, 12.10.12.10
T:Ashgabat, 12.10.12.10
T:Aldine Silliman Kieffer, 1882
T:Public Domain Courtesy of the Cyber Hymnal™
C:Aldine Silliman Kieffer, 1882
Z:Public Domain
Z:Courtesy of the Cyber Hymnal™
%%score 1 2
L:1/8
Q:1/4=107
M:4/4
K:Ab
V:1 treble 
V:2 bass 
V:1
 [CE]4 [=B,=D]2 [_DF]2 | [CE]3 [EA] [EA]4 | [EB]4 [DF]2 [DG]2 | [CA]3 [CE] [CE]4 | %4
 [CE]4 [=B,=D]2 [_DF]2 | [CE]3 [EA] [EA]4 | [FB]4 [EA]2 [EG]2 | [EA]6 z2 | [Ec]4 [Ec]2 [Fd]2 | %9
 [Ec]3 [EB] [EB]4 | [EB]4 [Ec]2 [EB]2 | [DB]3 [CA] [CA]4 | [FA]4 [EG]2 [DF]2 | [CE]3 [EA] [EA]4 | %14
 [FB]4 [EA]2 [EG]2 | [EA]6 z2 |] %16
V:2
 [A,,A,]4 [A,,A,]2 [A,,A,]2 | [A,,A,]3 [A,,C] [A,,C]4 | [E,G,]4 [E,A,]2 [E,B,]2 | %3
 [A,,C]3 [A,,A,] [A,,A,]4 | [A,,A,]4 [A,,A,]2 [A,,A,]2 | [A,,A,]3 [A,,C] [A,,C]4 | %6
 [D,D]4 [E,C]2 [E,B,]2 | [A,,C]6 z2 | [A,,A,]4 [A,,A,]2 [D,A,]2 | [E,A,]3 [E,G,] [E,G,]4 | %10
 [E,G,]4 [E,A,]2 [E,G,]2 | [A,,A,]3 [A,,A,] [A,,A,]4 | [D,A,]4 [D,A,]2 [D,A,]2 | %13
 [A,,A,]3 [A,,C] [A,,C]4 | [D,D]4 [E,C]2 [E,B,]2 | [A,,C]6 z2 |] %16

